!!!ONB: MCCC : ICS0003_05 : Extracted Monophonic Melody
!!!COM: Saint-Saëns, Camille
!!!OPR: Album
!!!OMV: 5
!!!SCT: Op.72
!!!ODT: 1884///
**kern
*staff1
*clefG2
*k[b-e-a-]
*c:
*M6/8
=5
2.cc
=6
4.cc
8.cc
32cc
32dd
32ee-
32dd
32cc
32b
=7
2.cc
=8
4.cc
8cc
32cc
32dd
32ee-
32dd
32cc
32b-
32a-
32g
=9
4.f
4.F
=10
4.c
4.f[
=11
4.f]
4.F
=12
2.f]
=13
2.cc
=14
4.cc[
8.cc]
32dd
32ee-
32dd
32cc
32b-
32a-
=15
2.g
=16
4.g
8.g
32g[
32g]
32g
32f
32e-
32d
=17
4.G-
4.c[
=18
4.c]
4.C
=19
4.G
4.c[
=20
2.c]
=21
2.r
=22
4.r
4.G[
=23
4.G]
4.r
=24
4.r
4.G
=25
4.r
4.A-
=26
4.B-
4.B
=27
4.r
4.A-
=28
4.B-
4.B
=29
4.G
4.a-
=30
4.b-
4.b
=31
4.r
8r
8g
8cc
=32
8gg
8gg
8ccc
4.ggg
=33
4.r
8r
8g
8cc
=34
8gg
8gg
8ccc
4.ggg
=35
8r
8A-
8c
8a-
8a-
8cc
=36
8aa-
8aa-
8ccc
8aaa-
8ccc
8aa-
=37
4.r
8ccc
8ff
8cc
=38
4.r
8cc
8f
8c
=39
4.r
8r
8G
8c
=40
8g
8g
8cc
4.gg
=41
4.r
8r
8d
8b
=42
8gg
8b
8d
4.r
=43
2.r
=44
2.r
=45
4.r
8gg
8ee-
8g
=46
2.r
=47
4.r
4.g[
=48
4.g]
4.gg[
=49
4.gg]
4.g[
=50
4.g]
4.gg[
=51
4.gg]
4.a-
=52
4.b-
4.b
=53
4.gg
4.a-
=54
4.b-
4.b
=55
4.gg
4.aa-
=56
4.bb-
4.bb
=57
2.ccc
=58
4.ccc
8.ccc
32ccc
32ddd
32eee-
32ddd
32ccc
32bb
=59
2.ccc
=60
4.ccc
8ccc
32ccc
32ddd
32eee-
32ddd
32ccc
32bb-
32aa-
32gg
=61
4.ff
4.ff[
=62
4.ff]
4.ff[
=63
4.ff]
4.r
=64
2.r
=65
2.ccc
=66
4.ccc[
8.ccc]
32ddd
32eee-
32ddd
32ccc
32bb-
32aa-
=67
2.gg
=68
4.gg
8.gg
32gg[
32gg]
32gg
32ff
32ee-
32dd
=69
4.cc
4.cc[
=70
4.cc]
4.cc[
=71
4.cc]
4.cc[
=72
4.cc]
8r
8c
8d
=73
8e-
8d
8c
8r
8B-
8A-
=74
4g
8g
8r
8c
8d
=75
8e-
8d
8c
8r
8B-
8A-
=76
4g
8g
8r
8c
8d
=77
4r
8g[
4g]
8a-
=78
4r
8b-[
4b-]
8b
=79
4r
8g[
4g]
8a-
=80
4r
8b-[
4b-]
8b
=81
4r
8gg[
4gg]
8aa-
=82
4bb-
8bb
8r
8ccc
8ddd
=83
8.eee-
16ddd
8ccc
8r
8bb-
8aa-
=84
4.gg
4.gg[
=85
4.gg]
8r
8aa-
8bb-
=86
8.ccc
16bb-
8aa-
8r
8gg
8ff
=87
4.ee
4.ee[
=88
4.ee]
8r
8ff
8gg
=89
8.aa-
16gg
8ff
8r
8ee-
8dd-
=90
4.cc
4.cc
=91
2.cc[
=92
4.cc]
4.r
=93
2.r
=94
8r
8r
16r
16e-
4.g
=95
2.r
=96
4.r
4.cc
=97
2.r
=98
2.r
=99
2.r
=100
2.r
=101
2.r
=102
4r
8g
4.ee-
=103
2.r
=104
8r
8r
16r
32r
32dd
4.gg
=105
2.r
=106
2.r
=107
2.r
=108
2.r
=109
2.r
=110
2.r
=111
2.r
=112
2.f[
=113
2.f]
=114
8.g
16f
8e-
8r
8d
8c
=115
2.r
=116
2.r
=117
4.r
4.g
=118
4.c
4.r
==
*-
